static/img/kroki/d7c201fab00519dd5f266a796879c2d7.svg

<?xml version="1.0" encoding="us-ascii" standalone="no"?><svg xmlns="http://www.w3.org/2000/svg" xmlns:xlink="http://www.w3.org/1999/xlink" contentStyleType="text/css" height="374px" preserveAspectRatio="none" style="width:169px;height:374px;" version="1.1" viewBox="0 0 169 374" width="169px" zoomAndPan="magnify"><defs/><g><!--class aws_ecs_task--><g id="elem_aws_ecs_task"><rect codeLine="23" fill="#3D176E" height="39.7891" id="aws_ecs_task" rx="2.5" ry="2.5" style="stroke:#000D19;stroke-width:0.5;" width="154" x="7.5" y="328.58"/><ellipse cx="22.5" cy="348.4745" fill="#ADD1B2" rx="11" ry="11" style="stroke:#181818;stroke-width:1.0;"/><path d="M25.4688,354.1152 Q24.8906,354.412 24.25,354.5527 Q23.6094,354.7089 22.9063,354.7089 Q20.4063,354.7089 19.0781,353.0683 Q17.7656,351.412 17.7656,348.287 Q17.7656,345.162 19.0781,343.5058 Q20.4063,341.8495 22.9063,341.8495 Q23.6094,341.8495 24.25,342.0058 Q24.9063,342.162 25.4688,342.4589 L25.4688,345.1777 Q24.8438,344.5995 24.25,344.3339 Q23.6563,344.0527 23.0313,344.0527 Q21.6875,344.0527 21,345.1308 Q20.3125,346.1933 20.3125,348.287 Q20.3125,350.3808 21,351.4589 Q21.6875,352.5214 23.0313,352.5214 Q23.6563,352.5214 24.25,352.2558 Q24.8438,351.9745 25.4688,351.3964 L25.4688,354.1152 Z " fill="#000000"/><text fill="#D9B8FF" font-family="Helvetica" font-size="17" lengthAdjust="spacing" textLength="112" x="41.5" y="354.3598">aws_ecs_task</text></g><!--class aws_resource--><g id="elem_aws_resource"><rect codeLine="26" fill="#3D176E" height="39.7891" id="aws_resource" rx="2.5" ry="2.5" style="stroke:#000D19;stroke-width:0.5;" width="155" x="7" y="167.79"/><ellipse cx="22" cy="187.6845" fill="#ADD1B2" rx="11" ry="11" style="stroke:#181818;stroke-width:1.0;"/><path d="M24.9688,193.3252 Q24.3906,193.622 23.75,193.7627 Q23.1094,193.9189 22.4063,193.9189 Q19.9063,193.9189 18.5781,192.2783 Q17.2656,190.622 17.2656,187.497 Q17.2656,184.372 18.5781,182.7158 Q19.9063,181.0595 22.4063,181.0595 Q23.1094,181.0595 23.75,181.2158 Q24.4063,181.372 24.9688,181.6689 L24.9688,184.3877 Q24.3438,183.8095 23.75,183.5439 Q23.1563,183.2627 22.5313,183.2627 Q21.1875,183.2627 20.5,184.3408 Q19.8125,185.4033 19.8125,187.497 Q19.8125,189.5908 20.5,190.6689 Q21.1875,191.7314 22.5313,191.7314 Q23.1563,191.7314 23.75,191.4658 Q24.3438,191.1845 24.9688,190.6064 L24.9688,193.3252 Z " fill="#000000"/><text fill="#D9B8FF" font-family="Helvetica" font-size="17" lengthAdjust="spacing" textLength="113" x="41" y="193.5698">aws_resource</text></g><!--class resource--><g id="elem_resource"><rect codeLine="29" fill="#3D176E" height="39.7891" id="resource" rx="2.5" ry="2.5" style="stroke:#000D19;stroke-width:0.5;" width="113" x="28" y="7"/><ellipse cx="43" cy="26.8945" fill="#ADD1B2" rx="11" ry="11" style="stroke:#181818;stroke-width:1.0;"/><path d="M45.9688,32.5352 Q45.3906,32.832 44.75,32.9727 Q44.1094,33.1289 43.4063,33.1289 Q40.9063,33.1289 39.5781,31.4883 Q38.2656,29.832 38.2656,26.707 Q38.2656,23.582 39.5781,21.9258 Q40.9063,20.2695 43.4063,20.2695 Q44.1094,20.2695 44.75,20.4258 Q45.4063,20.582 45.9688,20.8789 L45.9688,23.5977 Q45.3438,23.0195 44.75,22.7539 Q44.1563,22.4727 43.5313,22.4727 Q42.1875,22.4727 41.5,23.5508 Q40.8125,24.6133 40.8125,26.707 Q40.8125,28.8008 41.5,29.8789 Q42.1875,30.9414 43.5313,30.9414 Q44.1563,30.9414 44.75,30.6758 Q45.3438,30.3945 45.9688,29.8164 L45.9688,32.5352 Z " fill="#000000"/><text fill="#D9B8FF" font-family="Helvetica" font-size="17" lengthAdjust="spacing" textLength="71" x="62" y="32.7798">resource</text></g><!--reverse link aws_resource to aws_ecs_task--><g id="link_aws_resource_aws_ecs_task"><path codeLine="32" d="M84.5,225.84 C84.5,256.36 84.5,297.69 84.5,328.25 " fill="none" id="aws_resource-backto-aws_ecs_task" style="stroke:#FFAF37;stroke-width:2.0;"/><polygon fill="none" points="84.5,207.84,78.5,225.84,90.5,225.84,84.5,207.84" style="stroke:#FFAF37;stroke-width:2.0;"/></g><!--reverse link resource to aws_resource--><g id="link_resource_aws_resource"><path codeLine="33" d="M84.5,65.05 C84.5,95.57 84.5,136.9 84.5,167.46 " fill="none" id="resource-backto-aws_resource" style="stroke:#FFAF37;stroke-width:2.0;"/><polygon fill="none" points="84.5,47.05,78.5,65.05,90.5,65.05,84.5,47.05" style="stroke:#FFAF37;stroke-width:2.0;"/></g><!--SRC=[XP1BRy8m48Jl_XMME2EHeXOYzG98LNj1LUaTBV4Qh2HsjBifee__tb9AvIGyhZEVPcPtumngB2lPwHBB5H8hpfslWA3K4wAmdOKYaEvP2tOuQfiFmSjLO0ubwaSitb1S1ctYTUEot2EpleciAMJvcaBjpI5U23p_MEWbecO5C4z4oArgmMYCILTZQzjaExGtDCde3ZjO88FqXmm60vEaRUHgrSMx_uc5UqUTn4-R1y7Ep4x5BtLnvPw8HdOEFVfdDpw3CSwlzMsalHmsaKTgw8iDcB3TqnOAZcjOa338hi9PvofCnyQEJi9Fvs2LxL-dOSjBp7WfmBd-KEehqWavr9HXh3Ur1dN_sU_t6u7gX7UKr3S0]--></g></svg>

<svg xmlns="http://www.w3.org/2000/svg" width="169" height="374" viewBox="0 0 169 374"><rect width="154" height="39.789" x="7.5" y="328.58" fill="#3D176E" rx="2.5" ry="2.5" style="stroke:#000d19;stroke-width:.5"/><circle cx="22.5" cy="348.474" r="11" fill="#ADD1B2" style="stroke:#181818;stroke-width:1"/><path d="M25.469 354.115q-.578.297-1.219.438-.64.156-1.344.156-2.5 0-3.828-1.64-1.312-1.657-1.312-4.782t1.312-4.781q1.328-1.656 3.828-1.656.703 0 1.344.156.656.156 1.219.453v2.719q-.625-.579-1.219-.844-.594-.281-1.219-.281-1.343 0-2.031 1.078-.687 1.062-.687 3.156t.687 3.172q.688 1.062 2.031 1.062.625 0 1.219-.265.594-.281 1.219-.86z"/><text x="41.5" y="354.36" fill="#D9B8FF" font-family="Helvetica" font-size="17" textLength="112">aws_ecs_task</text><rect width="155" height="39.789" x="7" y="167.79" fill="#3D176E" rx="2.5" ry="2.5" style="stroke:#000d19;stroke-width:.5"/><circle cx="22" cy="187.685" r="11" fill="#ADD1B2" style="stroke:#181818;stroke-width:1"/><path d="M24.969 193.325q-.578.297-1.219.438-.64.156-1.344.156-2.5 0-3.828-1.64-1.312-1.657-1.312-4.782t1.312-4.781q1.328-1.656 3.828-1.656.703 0 1.344.156.656.156 1.219.453v2.719q-.625-.578-1.219-.844-.594-.281-1.219-.281-1.343 0-2.031 1.078-.687 1.062-.687 3.156t.687 3.172q.688 1.062 2.031 1.062.625 0 1.219-.265.594-.281 1.219-.86z"/><text x="41" y="193.57" fill="#D9B8FF" font-family="Helvetica" font-size="17" textLength="113">aws_resource</text><rect width="113" height="39.789" x="28" y="7" fill="#3D176E" rx="2.5" ry="2.5" style="stroke:#000d19;stroke-width:.5"/><circle cx="43" cy="26.895" r="11" fill="#ADD1B2" style="stroke:#181818;stroke-width:1"/><path d="M45.969 32.535q-.578.297-1.219.438-.64.156-1.344.156-2.5 0-3.828-1.64-1.312-1.657-1.312-4.782t1.312-4.781q1.328-1.656 3.828-1.656.703 0 1.344.156.656.156 1.219.453v2.719q-.625-.578-1.219-.844-.594-.281-1.219-.281-1.343 0-2.031 1.078-.687 1.062-.687 3.156t.687 3.172q.688 1.062 2.031 1.062.625 0 1.219-.265.594-.281 1.219-.86z"/><text x="62" y="32.78" fill="#D9B8FF" font-family="Helvetica" font-size="17" textLength="71">resource</text><path fill="none" d="M84.5 225.84v102.41m0-120.41-6 18h12zm0-142.79v102.41m0-120.41-6 18h12z" style="stroke:#ffaf37;stroke-width:2"/></svg>
